icons/svgs/strong.svg

<?xml version="1.0" encoding="UTF-8" standalone="no"?>
<svg
   xmlns:dc="http://purl.org/dc/elements/1.1/"
   xmlns:cc="http://creativecommons.org/ns#"
   xmlns:rdf="http://www.w3.org/1999/02/22-rdf-syntax-ns#"
   xmlns:svg="http://www.w3.org/2000/svg"
   xmlns="http://www.w3.org/2000/svg"
   xmlns:sodipodi="http://sodipodi.sourceforge.net/DTD/sodipodi-0.dtd"
   xmlns:inkscape="http://www.inkscape.org/namespaces/inkscape"
   width="192px"
   height="192px"
   viewBox="0 0 192 192"
   version="1.1"
   id="svg9"
   sodipodi:docname="strong.svg"
   inkscape:export-filename="/home/fbn/temp/Appstract/icons/svgs/strong.png"
   inkscape:export-xdpi="96"
   inkscape:export-ydpi="96"
   inkscape:version="1.0.1 (3bc2e813f5, 2020-09-07)">
  <metadata
     id="metadata15">
    <rdf:RDF>
      <cc:Work
         rdf:about="">
        <dc:format>image/svg+xml</dc:format>
        <dc:type
           rdf:resource="http://purl.org/dc/dcmitype/StillImage" />
      </cc:Work>
    </rdf:RDF>
  </metadata>
  <defs
     id="defs13" />
  <sodipodi:namedview
     pagecolor="#ffffff"
     bordercolor="#666666"
     borderopacity="1"
     objecttolerance="10"
     gridtolerance="10"
     guidetolerance="10"
     inkscape:pageopacity="0"
     inkscape:pageshadow="2"
     inkscape:window-width="1920"
     inkscape:window-height="1006"
     id="namedview11"
     showgrid="false"
     inkscape:zoom="3.7239583"
     inkscape:cx="96"
     inkscape:cy="96"
     inkscape:window-x="0"
     inkscape:window-y="0"
     inkscape:window-maximized="1"
     inkscape:current-layer="svg9"
     inkscape:document-rotation="0" />
  <!-- Generated by Pixelmator Pro 2.0.1 -->
  <path
     id="Rounded-Rectangle"
     d="m 31,54 c -2.761,0 -5,2.239 -5,5 v 75 c 0,2.761 2.239,5 5,5 h 30 c 2.761,0 5,-2.239 5,-5 V 59 c 0,-2.761 -2.239,-5 -5,-5 z"
     fill="#6ba2f4"
     fill-opacity="1"
     stroke="none" />
  <path
     id="Rounded-Rectangle-copy"
     d="m 131,54 c -2.761,0 -5,2.239 -5,5 v 75 c 0,2.761 2.239,5 5,5 h 30 c 2.761,0 5,-2.239 5,-5 V 59 c 0,-2.761 -2.239,-5 -5,-5 z"
     fill="#6ba2f4"
     fill-opacity="1"
     stroke="none" />
  <path
     id="Path-1"
     d="M 10,96 H 182"
     fill="none"
     stroke="#000000"
     stroke-width="6"
     stroke-opacity="1"
     stroke-linejoin="round"
     sodipodi:nodetypes="cc"
     style="stroke-linecap:round" />
</svg>

<?xml version="1.0" encoding="UTF-8"?>
<svg width="192px" height="192px" viewBox="0 0 192 192" xmlns="http://www.w3.org/2000/svg" xmlns:xlink="http://www.w3.org/1999/xlink" version="1.1">
 <!-- Generated by Pixelmator Pro 2.0.1 -->
 <g id="strong-fix">
  <path id="Rounded-Rectangle" d="M31 54 C28.239 54 26 56.239 26 59 L26 134 C26 136.761 28.239 139 31 139 L61 139 C63.761 139 66 136.761 66 134 L66 59 C66 56.239 63.761 54 61 54 Z" fill="#6ba2f4" fill-opacity="1" stroke="none"/>
  <path id="Rounded-Rectangle-copy" d="M131 54 C128.239 54 126 56.239 126 59 L126 134 C126 136.761 128.239 139 131 139 L161 139 C163.761 139 166 136.761 166 134 L166 59 C166 56.239 163.761 54 161 54 Z" fill="#6ba2f4" fill-opacity="1" stroke="none"/>
  <g id="New-Group">
   <path id="Path" d="M73 96 L119 96" fill="none" stroke="#000000" stroke-width="6" stroke-opacity="1" stroke-linejoin="round"/>
   <path id="Path-1" d="M9 96 L19 96" fill="none" stroke="#000000" stroke-width="6" stroke-opacity="1" stroke-linejoin="round"/>
   <path id="Path-copy-1" d="M173 96 L183 96" fill="none" stroke="#000000" stroke-width="6" stroke-opacity="1" stroke-linejoin="round"/>
  </g>
 </g>
</svg>
